app/icons/handshake.svg

﻿<svg xmlns="http://www.w3.org/2000/svg" xmlns:xlink="http://www.w3.org/1999/xlink" viewBox="0 0 50 50" version="1.1" width="50" height="50">
<g id="surface1">
<path style=" " d="M 34.21875 4.125 C 33.199219 4.183594 32.195313 4.433594 31.25 4.90625 L 25.75 7.59375 L 10.125 7.59375 L 1.25 5.4375 C 1.117188 5.398438 0.980469 5.390625 0.84375 5.40625 C 0.359375 5.464844 -0.0078125 5.863281 -0.03125 6.351563 C -0.0546875 6.835938 0.273438 7.269531 0.75 7.375 L 9.75 9.5625 L 9.875 9.59375 L 21.65625 9.59375 L 13.15625 13.75 C 13.121094 13.765625 13.097656 13.796875 13.0625 13.8125 C 11.742188 14.394531 11.394531 16.199219 12.375 17.25 L 12.34375 17.28125 C 12.359375 17.296875 12.390625 17.296875 12.40625 17.3125 C 15.382813 20.574219 20.097656 21.65625 24.25 20.03125 L 24.28125 20.03125 L 30.15625 17.75 L 42.28125 29.90625 C 43.199219 30.824219 43.199219 32.269531 42.28125 33.1875 C 41.363281 34.105469 39.917969 34.105469 39 33.1875 C 38.601563 32.867188 38.027344 32.898438 37.664063 33.257813 C 37.304688 33.621094 37.273438 34.195313 37.59375 34.59375 C 38.511719 35.511719 38.511719 36.988281 37.59375 37.90625 C 36.675781 38.824219 35.230469 38.824219 34.3125 37.90625 L 33.59375 37.1875 C 33.195313 36.867188 32.621094 36.898438 32.257813 37.257813 C 31.898438 37.621094 31.867188 38.195313 32.1875 38.59375 C 33.105469 39.511719 33.105469 40.988281 32.1875 41.90625 C 31.269531 42.824219 29.824219 42.824219 28.90625 41.90625 L 28.21875 41.1875 C 27.832031 40.789063 27.195313 40.785156 26.796875 41.171875 C 26.398438 41.558594 26.394531 42.195313 26.78125 42.59375 C 27.699219 43.511719 27.699219 44.988281 26.78125 45.90625 C 25.863281 46.824219 24.417969 46.824219 23.5 45.90625 L 22.25 44.65625 L 23 43.90625 C 24.464844 42.441406 24.464844 40.058594 23 38.59375 C 22.269531 37.863281 21.304688 37.5 20.34375 37.5 C 20.332031 37.5 20.324219 37.5 20.3125 37.5 C 20.328125 36.515625 19.964844 35.527344 19.21875 34.78125 C 18.488281 34.050781 17.523438 33.6875 16.5625 33.6875 C 16.511719 33.6875 16.457031 33.683594 16.40625 33.6875 C 16.4375 32.683594 16.078125 31.671875 15.3125 30.90625 C 14.582031 30.175781 13.617188 29.78125 12.65625 29.78125 C 12.605469 29.78125 12.550781 29.777344 12.5 29.78125 C 12.53125 28.777344 12.171875 27.765625 11.40625 27 C 10.675781 26.269531 9.710938 25.90625 8.75 25.90625 C 7.789063 25.90625 6.824219 26.269531 6.09375 27 L 5.1875 27.90625 L 1.15625 27.21875 C 1.09375 27.203125 1.03125 27.191406 0.96875 27.1875 C 0.417969 27.152344 -0.0585938 27.574219 -0.09375 28.125 C -0.128906 28.675781 0.292969 29.152344 0.84375 29.1875 L 4.125 29.78125 C 3.828125 31.011719 4.136719 32.355469 5.09375 33.3125 C 5.867188 34.085938 6.894531 34.449219 7.90625 34.40625 C 7.863281 35.417969 8.226563 36.445313 9 37.21875 C 9.773438 37.992188 10.800781 38.355469 11.8125 38.3125 C 11.78125 39.316406 12.140625 40.328125 12.90625 41.09375 C 13.652344 41.839844 14.640625 42.203125 15.625 42.1875 C 15.601563 43.175781 15.953125 44.171875 16.6875 44.90625 L 16.71875 44.9375 C 17.761719 45.957031 19.261719 46.226563 20.5625 45.78125 L 22.09375 47.3125 C 23.773438 48.992188 26.539063 48.992188 28.21875 47.3125 C 29.035156 46.496094 29.414063 45.417969 29.4375 44.34375 C 30.882813 44.726563 32.46875 44.4375 33.59375 43.3125 C 34.410156 42.496094 34.820313 41.417969 34.84375 40.34375 C 36.285156 40.722656 37.875 40.4375 39 39.3125 C 39.960938 38.351563 40.324219 37.042969 40.1875 35.78125 C 41.449219 35.921875 42.757813 35.554688 43.71875 34.59375 C 44.792969 33.519531 45.175781 32.011719 44.875 30.625 L 45.46875 30.03125 L 49.15625 29.5 C 49.707031 29.414063 50.085938 28.894531 50 28.34375 C 49.914063 27.792969 49.394531 27.414063 48.84375 27.5 L 44.84375 28.125 L 44.53125 28.15625 L 43.9375 28.75 C 43.867188 28.667969 43.796875 28.578125 43.71875 28.5 L 31.40625 16.1875 C 31.359375 16.140625 31.304688 16.097656 31.25 16.0625 C 31.238281 16.050781 31.230469 16.042969 31.21875 16.03125 C 30.957031 15.644531 30.464844 15.492188 30.03125 15.65625 L 23.53125 18.15625 C 20.113281 19.507813 16.265625 18.628906 13.84375 15.9375 L 13.8125 15.90625 C 13.683594 15.777344 13.675781 15.6875 13.84375 15.625 L 13.90625 15.625 L 13.9375 15.59375 L 26.28125 9.5625 C 26.492188 9.53125 26.691406 9.433594 26.84375 9.28125 L 32.125 6.6875 L 32.15625 6.6875 C 34 5.765625 36.152344 5.953125 37.84375 7.09375 L 38.21875 7.53125 L 38.3125 7.65625 L 38.4375 7.71875 C 40.253906 8.96875 42.441406 9.300781 44.5 8.75 L 44.5 8.78125 L 44.5625 8.75 L 49.21875 7.78125 C 49.761719 7.660156 50.105469 7.121094 49.984375 6.578125 C 49.863281 6.035156 49.324219 5.691406 48.78125 5.8125 L 44.09375 6.8125 L 44.0625 6.84375 L 44.03125 6.84375 C 42.539063 7.257813 41 6.984375 39.65625 6.09375 L 39.28125 5.65625 L 39.1875 5.5625 L 39.0625 5.46875 C 37.914063 4.664063 36.601563 4.226563 35.25 4.125 C 34.910156 4.101563 34.558594 4.105469 34.21875 4.125 Z M 8.75 27.84375 C 9.1875 27.84375 9.632813 28.039063 10 28.40625 C 10.734375 29.140625 10.734375 30.171875 10 30.90625 L 9.21875 31.65625 L 9.125 31.75 L 9 31.90625 C 8.265625 32.640625 7.234375 32.640625 6.5 31.90625 C 5.898438 31.304688 5.808594 30.515625 6.1875 29.84375 C 6.363281 29.71875 6.492188 29.546875 6.5625 29.34375 L 7.375 28.5625 L 7.5 28.40625 C 7.867188 28.039063 8.3125 27.84375 8.75 27.84375 Z M 12.65625 31.75 C 13.09375 31.75 13.539063 31.945313 13.90625 32.3125 C 14.640625 33.046875 14.640625 34.046875 13.90625 34.78125 L 12.90625 35.78125 C 12.171875 36.515625 11.140625 36.515625 10.40625 35.78125 C 9.671875 35.046875 9.671875 34.046875 10.40625 33.3125 L 11.40625 32.3125 C 11.773438 31.945313 12.21875 31.75 12.65625 31.75 Z M 16.5625 35.65625 C 17 35.65625 17.414063 35.851563 17.78125 36.21875 C 18.386719 36.824219 18.488281 37.613281 18.09375 38.28125 C 17.957031 38.382813 17.8125 38.46875 17.6875 38.59375 L 16.6875 39.59375 L 16.6875 39.625 L 16.65625 39.625 C 16.546875 39.746094 16.464844 39.871094 16.375 40 C 15.707031 40.394531 14.917969 40.292969 14.3125 39.6875 C 13.578125 38.953125 13.578125 37.953125 14.3125 37.21875 L 15.0625 36.4375 L 15.25 36.28125 L 15.3125 36.21875 C 15.679688 35.851563 16.125 35.65625 16.5625 35.65625 Z M 20.34375 39.46875 C 20.78125 39.46875 21.226563 39.632813 21.59375 40 C 22.328125 40.734375 22.328125 41.765625 21.59375 42.5 L 20.59375 43.5 C 20.507813 43.585938 20.4375 43.683594 20.34375 43.75 C 20.335938 43.753906 20.320313 43.746094 20.3125 43.75 C 19.613281 44.234375 18.738281 44.144531 18.09375 43.5 C 17.621094 43.027344 17.511719 42.082031 17.84375 41.375 C 17.96875 41.277344 18.105469 41.207031 18.21875 41.09375 L 19.21875 40.09375 C 19.351563 39.960938 19.453125 39.804688 19.5625 39.65625 C 19.8125 39.53125 20.082031 39.46875 20.34375 39.46875 Z "/>
</g>
</svg>

<?xml version="1.0" encoding="utf-8"?>
<!-- Generator: Adobe Illustrator 17.0.0, SVG Export Plug-In . SVG Version: 6.00 Build 0)  -->
<!DOCTYPE svg PUBLIC "-//W3C//DTD SVG 1.1//EN" "http://www.w3.org/Graphics/SVG/1.1/DTD/svg11.dtd">
<svg version="1.1" id="Layer_1" xmlns="http://www.w3.org/2000/svg" xmlns:xlink="http://www.w3.org/1999/xlink" x="0px" y="0px"
	 width="50px" height="50px" viewBox="0 0 50 50" enable-background="new 0 0 50 50" xml:space="preserve">
<path d="M48.844,27.5l-4,0.625l-0.313,0.031l-0.594,0.594c-0.07-0.082-0.141-0.172-0.219-0.25L31.406,16.188
	c-0.047-0.047-0.102-0.09-0.156-0.125c-0.012-0.012-0.02-0.02-0.031-0.031c-0.262-0.387-0.754-0.539-1.188-0.375l-6.5,2.5
	c-3.418,1.352-7.266,0.473-9.688-2.219l-0.031-0.031c-0.129-0.129-0.137-0.219,0.031-0.281h0.063l0.031-0.031l12.344-6.031
	c0.211-0.031,0.41-0.129,0.563-0.281l5.281-2.594h0.031C34,5.766,36.152,5.953,37.844,7.094l0.375,0.438l0.094,0.125l0.125,0.063
	c1.816,1.25,4.004,1.582,6.063,1.031v0.031l0.063-0.031l4.656-0.969c0.543-0.121,0.887-0.66,0.766-1.203s-0.66-0.887-1.203-0.766
	l-4.688,1l-0.031,0.031h-0.031C42.539,7.258,41,6.984,39.656,6.094l-0.375-0.438l-0.094-0.094l-0.125-0.094
	c-1.148-0.805-2.461-1.242-3.813-1.344c-0.34-0.023-0.691-0.02-1.031,0c-1.02,0.059-2.023,0.309-2.969,0.781l-5.5,2.688H10.125
	L1.25,5.438C1.117,5.398,0.98,5.391,0.844,5.406C0.359,5.465-0.008,5.863-0.031,6.352C-0.055,6.836,0.273,7.27,0.75,7.375l9,2.188
	l0.125,0.031h11.781l-8.5,4.156c-0.035,0.016-0.059,0.047-0.094,0.063c-1.32,0.582-1.668,2.387-0.688,3.438l-0.031,0.031
	c0.016,0.016,0.047,0.016,0.063,0.031c2.977,3.262,7.691,4.344,11.844,2.719h0.031l5.875-2.281l12.125,12.156
	c0.918,0.918,0.918,2.363,0,3.281s-2.363,0.918-3.281,0c-0.398-0.32-0.973-0.289-1.336,0.07c-0.359,0.363-0.391,0.938-0.07,1.336
	c0.918,0.918,0.918,2.395,0,3.313s-2.363,0.918-3.281,0l-0.719-0.719c-0.398-0.32-0.973-0.289-1.336,0.07
	c-0.359,0.363-0.391,0.938-0.07,1.336c0.918,0.918,0.918,2.395,0,3.313s-2.363,0.918-3.281,0l-0.688-0.719
	c-0.387-0.398-1.023-0.402-1.422-0.016s-0.402,1.023-0.016,1.422c0.918,0.918,0.918,2.395,0,3.313s-2.363,0.918-3.281,0l-1.25-1.25
	l0.75-0.75c1.465-1.465,1.465-3.848,0-5.313c-0.73-0.73-1.695-1.094-2.656-1.094c-0.012,0-0.02,0-0.031,0
	c0.016-0.984-0.348-1.973-1.094-2.719c-0.73-0.73-1.695-1.094-2.656-1.094c-0.051,0-0.105-0.004-0.156,0
	c0.031-1.004-0.328-2.016-1.094-2.781c-0.73-0.73-1.695-1.125-2.656-1.125c-0.051,0-0.105-0.004-0.156,0
	c0.031-1.004-0.328-2.016-1.094-2.781c-0.73-0.73-1.695-1.094-2.656-1.094S6.824,26.27,6.094,27l-0.906,0.906l-4.031-0.688
	c-0.063-0.016-0.125-0.027-0.188-0.031c-0.551-0.035-1.027,0.387-1.063,0.938s0.387,1.027,0.938,1.063l3.281,0.594
	c-0.297,1.23,0.012,2.574,0.969,3.531c0.773,0.773,1.801,1.137,2.813,1.094C7.863,35.418,8.227,36.445,9,37.219
	s1.801,1.137,2.813,1.094c-0.031,1.004,0.328,2.016,1.094,2.781c0.746,0.746,1.734,1.109,2.719,1.094
	c-0.023,0.988,0.328,1.984,1.063,2.719l0.031,0.031c1.043,1.02,2.543,1.289,3.844,0.844l1.531,1.531c1.68,1.68,4.445,1.68,6.125,0
	c0.816-0.816,1.195-1.895,1.219-2.969c1.445,0.383,3.031,0.094,4.156-1.031c0.816-0.816,1.227-1.895,1.25-2.969
	c1.441,0.379,3.031,0.094,4.156-1.031c0.961-0.961,1.324-2.27,1.188-3.531c1.262,0.141,2.57-0.227,3.531-1.188
	c1.074-1.074,1.457-2.582,1.156-3.969l0.594-0.594l3.688-0.531c0.551-0.086,0.93-0.605,0.844-1.156S49.395,27.414,48.844,27.5z
	 M9.125,31.75L9,31.906c-0.734,0.734-1.766,0.734-2.5,0c-0.602-0.602-0.691-1.391-0.313-2.063c0.176-0.125,0.305-0.297,0.375-0.5
	l0.813-0.781L7.5,28.406c0.367-0.367,0.813-0.563,1.25-0.563s0.883,0.195,1.25,0.563c0.734,0.734,0.734,1.766,0,2.5l-0.781,0.75
	L9.125,31.75z M10.406,35.781c-0.734-0.734-0.734-1.734,0-2.469l1-1c0.367-0.367,0.813-0.563,1.25-0.563s0.883,0.195,1.25,0.563
	c0.734,0.734,0.734,1.734,0,2.469l-1,1C12.172,36.516,11.141,36.516,10.406,35.781z M16.688,39.594v0.031h-0.031
	c-0.109,0.121-0.191,0.246-0.281,0.375c-0.668,0.395-1.457,0.293-2.063-0.313c-0.734-0.734-0.734-1.734,0-2.469l0.75-0.781
	l0.188-0.156l0.063-0.063c0.367-0.367,0.813-0.563,1.25-0.563s0.852,0.195,1.219,0.563c0.605,0.605,0.707,1.395,0.313,2.063
	c-0.137,0.102-0.281,0.188-0.406,0.313L16.688,39.594z M21.594,42.5l-1,1c-0.086,0.086-0.156,0.184-0.25,0.25
	c-0.008,0.004-0.023-0.004-0.031,0c-0.699,0.484-1.574,0.395-2.219-0.25c-0.473-0.473-0.582-1.418-0.25-2.125
	c0.125-0.098,0.262-0.168,0.375-0.281l1-1c0.133-0.133,0.234-0.289,0.344-0.438c0.25-0.125,0.52-0.188,0.781-0.188
	c0.438,0,0.883,0.164,1.25,0.531C22.328,40.734,22.328,41.766,21.594,42.5z"/>
</svg>
